X: 1634
T: Rogers O'Neill
%S: s:4 b:32(8+8+8+8)
B: O'Neill's 1850 #1634
O: Cronin
Z: Nick Terhorst, nickte@microsoft.com
M: C|
L: 1/8
K: A
cB \
| AGAB AEFG | Ac (3(efg) a2 (3(efg) | aecA dfgf | (3(efe) (3(dcB) eaec |\
| AGAB AEFG | Ac (3(efg) a2 (3(efg) | aecA dBGB | A2A2 A2 :|
|: (3(efg) \
| aece fdBG | AcEc AcEc | BdEd BdEd | ceAe ceAe |\
| aece fdBG | AcEc BABc | dfed cBAG | A2A2 A2 :|
|: cB \
| AGAB AEFG | cABc eAce | fdge afdf | (3(efe) (3(dcB) AGFG |\
| AGAB cEAc | BABc defg | agaf edcB | A2A2 A2 :|
|: cd \
| efec ABcA | BEGB AGAB | cAce dcBA | GABG Edcd |\
| efec ABcA | BABc defg | agaf edcB | A2A2 A2 :|
